X:1
T: Braes of Tulliemet
T: 2nd setting
R:Strathspey
Q:128
K:Gm
M:4/4
L:1/16
|:B2|Ad3 d3c d3c df3|AF3 c3F d3F c3A|Gd3 d3c Ad3 dg3|fc3 c3A G4G2B2|
Ad3 d3c d3c df3|AF3 c3F d3F c3A|Gd3 d3c Ad3 dg3|fc3 c3A G4G2d2|
g3d gb3 g3d gb3|f3c fa3 f3c fa3|g3d gb3 g3d gb3|fd3 c3A G4 G3d|
g3d gb3 d2ga b3g|f3c fa3 c2fg a3f|gd3 d3=e fefg a3g|f3d dcBA G4G2:|
